X:710
T:Vaqueira
R:Vaqueirada
C:Tradicional
S:Música Tradicional Asturiana, (C) Tello & Tito. Asturies, 2001.
S:http://pagina.de/MusTradAst <telloytito@asturies.org>
N:...les dos terminan na dominante y el 7º grau nu ye sensible
A:Asturies
B:Musicología Asturiana - La Canción Tradicional, Modesto González Cobas
Z:La Canción Tradicional, M.G.C.
M:6/8
L:1/8
Q:3/8=80
K:Am
"1º"
|EAA GAA|G2 G-G3|EFF EFF|E2 E-E3|EAA GAA|GGF EFE|D2 D-D3|DGG FAG|F2 E-E3|
"2º"
|AAA ^G2 E|F E2-E3|AAA ^G2 A|B6|
|AAA ^G2 E|F E2-E2 E|DEF A^GA|BA^G A^GE|
|DEF A^GA|GFE FE z|E6|
